pk/nurse-cap.svg

<svg viewBox="0 0 48 48" fill="none" xmlns="http://www.w3.org/2000/svg" height="1em" width="1em">
  <path d="M24 10C12.7433 10 5.98524 16.7481 4.37521 18.5579C4.1348 18.8281 4.0869 19.2064 4.22726 19.5397L11.5526 36.9373C11.7887 37.4982 12.4705 37.7313 13.0196 37.4691C14.8237 36.6075 18.876 35 24 35C29.124 35 33.1763 36.6075 34.9804 37.4691C35.5295 37.7313 36.2113 37.4982 36.4474 36.9373L43.7727 19.5397C43.9131 19.2064 43.8652 18.8281 43.6248 18.5579C42.0148 16.7481 35.2568 10 24 10Z" fill="#2F88FF" stroke="black" stroke-width="4" stroke-linecap="round" stroke-linejoin="round"/>
  <path d="M20 24.001L28 24.001" stroke="white" stroke-width="4" stroke-linecap="round" stroke-linejoin="round"/>
  <path d="M24 20V28" stroke="white" stroke-width="4" stroke-linecap="round" stroke-linejoin="round"/>
</svg>

<svg viewBox="0 0 48 48" fill="none" xmlns="http://www.w3.org/2000/svg" height="1em" width="1em">
  <path d="M24 10c-11.257 0-18.015 6.748-19.625 8.558a.924.924 0 0 0-.148.982l7.326 17.397c.236.561.917.794 1.467.532C14.824 36.608 18.876 35 24 35c5.124 0 9.176 1.608 10.98 2.47.55.261 1.231.028 1.467-.533l7.326-17.397a.924.924 0 0 0-.148-.982C42.015 16.748 35.257 10 24 10Z" fill="#2F88FF" stroke="#000" stroke-width="4" stroke-linecap="round" stroke-linejoin="round"/>
  <path d="M20 24.001h8M24 20v8" stroke="#fff" stroke-width="4" stroke-linecap="round" stroke-linejoin="round"/>
</svg>
